!!!!SEGMENT: pl-sa--86-a-ii-26--006_pych-leopold--missa-brevis-in-d-dona.krn
!!!cenid: 17xx:372
!!!COM: Pych, Leopold
!!!COM-rismID: pe30018039
!!!CDT: <1758->1774
!!!CNT:
!!!OPR: Missa brevis in D
!!!OTL: Dona
!!!OMV: 006
!!!PDT:
!!!AGN: Sacred; Mass
!!!SMS-siglum: PL-SA
!!!SMS-shelfmark: 86/A II 26
!!!SMS-shelfwork: 001-006 M
!!!NIFC-rismSourceID: 1001035464
!!!NIFC-rismChildID: 1001035464
!!!NIFC-islandoraID: none
!!!URL-pdf-islandora:
!!!URL-scan: https://bc.bdsandomierz.pl/dlibra/publication/1364/edition/1332/content @EN{Scan in the Sandomierz Diocese Digital Library} @PL{Skany w portalu Cyfrowa Biblioteka Diecezjalna w Sandomierzu}
!!!ONB-nifc: UWAGA: części Mszy: Kyrie, Gloria, Credo, Sanctus, Agnus, Dona
!!!AIN: 3 empty 1 organ 2 violn 1 vox
!!!key:
**kern	**fba	**kern	**kern	**kern	**text	**kern	**text	**kern	**kern
*part7	*part7	*part6	*part5	*part4	*part4	*part3	*part3	*part2	*part1
*staff7	*staff7	*staff6	*staff5	*staff4	*staff4	*staff3	*staff3	*staff2	*staff1
*Iorgan	*	*Ivioln	*Ivioln	*Iempty	*	*Ivox	*	*Iempty	*Iempty
*I"Organo	*	*I"Violino 2ndo	*I"Violino 1mo	*I"Baſso	*	*I"Canto	*	*I"Clarino 2do ex D	*I"Clarino 1mo ex D
*I'Org.	*	*I'V-no II	*I'V-no I	*I'B.	*	*I'C.	*	*I'Clarino II	*I'Clarino I
*clefF4	*	*clefG2	*clefG2	*clefF4	*	*clefC1	*	*clefG2	*clefG2
*	*	*	*	*	*	*	*	*ITrd-1c-2	*ITrd-1c-2
*k[f#c#]	*	*k[f#c#]	*k[f#c#]	*k[f#c#]	*	*k[f#c#]	*	*k[f#c#]	*k[f#c#]
*D:	*	*D:	*D:	*D:	*	*D:	*	*D:	*D:
*M4/4	*	*M4/4	*M4/4	*M4/4	*	*M4/4	*	*M4/4	*M4/4
*met(c)	*	*met(c)	*met(c)	*met(c)	*	*met(c)	*	*met(c)	*met(c)
=1	=1	=1	=1	=1	=1	=1	=1	=1	=1
*	*	*	*	*2\right	*	*2\right	*	*2\right	*2\right
!	!	!	!	!	!	!LO:SIC:o=Dona:v:t='Dona' znajduje się przed kluczem i oznaczeniem metrum	!	!	!
!	!	!	!LO:SIC:o=Dona nobis:v:t='Dona nobis' znajduje się przed kluczem i oznaczeniem metrum	!	!	!	!	!	!
!LO:TX:b:Bi:t=Dona nobis:rj	!	!LO:TX:b:Bi:t=Dona nobis:rj	!	!	!	!	!	!LO:TX:b:Bi:t=Dona:rj	!LO:TX:b:Bi:t=Dona:rj
!LO:TX:a:Bi:t=Allo:rj	!	!LO:TX:a:Bi:t=Allo:rj	!LO:TX:a:Bi:t=Allo:rj	!LO:TX:a:Bi:t=Allo:rj	!	!LO:TX:a:Bi:t=allo:rj	!	!LO:TX:a:Bi:t=Allo:rj	!LO:TX:a:Bi:t=Allo:rj
8d`>\L	.	8dd\L	8dd\L	8d\	Do-	2r	.	2r	2r
16c#`>\L	.	16cc#\L	16cc#\L	16c#\LL	-na	.	.	.	.
16B`>\JJ	.	16b\JJ	16b\JJ	16B\JJ	.	.	.	.	.
8A`>\L	.	8a/L	8a/L	8A\	no-	.	.	.	.
8G`>\J	.	8g/J	8g/J	8G\	-bis	.	.	.	.
8F#`>\L	.	8f#/L	8f#/L	8F#\	pa-	4r	.	4r	4r
8D`>\J	.	8d/J	8d/J	8D\	-cem	.	.	.	.
4r	.	8r	8rdd	4r	.	8r	.	8r	8r
.	.	8dd\	8ff#\	.	.	8ff#\	Do-	8dd\	8ff#\
=2	=2	=2	=2	=2	=2	=2	=2	=2	=2
*	*	*Xtuplet	*	*	*	*	*	*	*
2r	.	8cc#\L	8ee\L	2r	.	8ee\	-(na)	8a\L	8ee\L
!	!	!	!LO:TUP:a:problem=klamra łukowa	!	!	!	!	!	!
.	.	24dd\L	24ff#\L	.	.	8ff#\	pa-	8dd\	8ff#\
.	.	24cc#\	24ee\	.	.	.	.	.	.
.	.	24dd\JJ	24ff#\JJ	.	.	.	.	.	.
.	.	8ee\L	8gg\L	.	.	8gg\	-cem	8ee\	8gg\
.	.	8dd\J	8ff#\J	.	.	8ff#\	da	8dd\J	8ff#\J
8rF	.	8dd\L	8ff#\L	4r	.	8ff#\	pa-	8dd\L	8ff#\L
8A\L	.	8cc#\J	8ee\J	.	.	8ee\	-cem	8a\J	8ee\J
8B\	.	8r	8r	8r	.	8r	.	8r	8r
8c#\J	.	8ee\	8ee\	8c#\	da	8ee\	da	8a/	8ee\
*	*	*tuplet	*	*	*	*	*	*	*
!	!	!LO:LB:g=original	!	!	!	!	!	!	!
=3	=3	=3	=3	=3	=3	=3	=3	=3	=3
!LO:TX:a:t=P:problem=mixed beam	!	!	!	!	!	!	!	!	!
8d\L	.	8ff#\	8ff#\	8d\	Pa-	8ff#\	pa-	2dd\	2ff#\
8D/J	.	4dd\	4dd\	4B\	.	4dd\	.	.	.
8r	.	.	.	.	.	.	.	.	.
!	!	!	!	!LO:LB:g=original	!	!	!	!	!
!LO:TX:a:t=P:problem=mixed beam	!	!	!	!	!	!	!	!	!
8B\L	.	16cc#\LL	16cc#\LL	16c#\LL	.	16cc#\LL	.	.	.
.	.	16b\JJ	16b\JJ	16d\JJ	.	16dd\JJ	.	.	.
8c#\	.	8ee\	8ee\	8c#\	.	8ee\	.	2a/	2ee\
8C#/J	.	4cc#\	4cc#\	4A\	.	4cc#\	.	.	.
8r	.	.	.	.	.	.	.	.	.
8A\	.	16b\LL	16b\LL	16B\LL	.	16b\LL	.	.	.
.	.	16a\JJ	16a\JJ	16c#\JJ	.	16cc#\JJ	.	.	.
=4	=4	=4	=4	=4	=4	=4	=4	=4	=4
!	!	!	!	!	!	!	!	!LO:TX:a:Bi:t=8	!LO:TX:a:Bi:t=8
8B\L	.	8.b/L	8.dd\L	8B\	-cem	8dd\	-cem	00r	00r
8E\	7	.	.	8B\	da	8dd\	da	.	.
.	.	16b/Jk	16dd\Jk	.	.	.	.	.	.
8E\	.	8.a/L	8cc#\L	8A\	Pa-	8cc#\L	pa-	.	.
8E\J	.	.	8b\J	8G#X\	.	8b\J	.	.	.
.	.	16g#X/Jk	.	.	.	.	.	.	.
4A\	.	16a/LL	16cc#\LL	8A\L	-cem	8cc#\L	-cem	.	.
.	.	16cc#/	16ee\	.	.	.	.	.	.
.	.	16dd/	16ff#\	8B\J	.	8dd\J	.	.	.
.	.	16b/JJ	16gg#X\JJ	.	.	.	.	.	.
8r	.	8cc#\L	8aa\L	8c#\	do-	8ee\	do-	.	.
8D\	.	8b\J	8dd\J	8B\	-na	8dd\	-na	.	.
!LO:LB:g=original	!	!	!LO:LB:g=original	!	!	!LO:LB:g=original	!	!	!
=5	=5	=5	=5	=5	=5	=5	=5	=5	=5
4E\	.	4a/	8cc#\L	8A\	no-	8cc#\	no-	.	.
.	.	.	16b\L	8D\	-bis	16b\LL	-bis	.	.
.	.	.	16a\JJ	.	.	16a\JJ	.	.	.
!	!	!	!LO:TX:a:t=P:problem=mixed beam	!	!	!	!	!	!
4EE/	.	4e/	8ee\L	4E\	Pa-	4b\	pa-	.	.
.	.	.	8e/J	.	.	.	.	.	.
8AA`</L	.	8a\L	8a\L	4AA/	-cem	4a\	-cem	.	.
16BB`</L	.	16b\L	16b\L	.	.	.	.	.	.
16C#`</JJ	.	16cc#\JJ	16cc#\JJ	.	.	.	.	.	.
16D`</LL	.	16dd\LL	16dd\LL	4r	.	4r	.	.	.
16E`</	.	16ee\	16ee\	.	.	.	.	.	.
16F#`</	.	16ff#\	16ff#\	.	.	.	.	.	.
16G#X`</JJ	.	16gg#X\JJ	16gg#X\JJ	.	.	.	.	.	.
=6	=6	=6	=6	=6	=6	=6	=6	=6	=6
*	*	*Xtuplet	*	*	*	*	*	*	*
!LO:TX:a:t=P:problem=mixed beam	!	!LO:TX:a:t=P:problem=mixed beam	!LO:TX:a:t=P:problem=mixed beam	!	!	!	!	!	!
!	!	!	!	!LO:TX:a:Bi:t=3	!	!LO:TX:a:Bi:t=3	!	!	!
!	!	!	!	!LO:TX:a:t=P:problem=w źródle łuk nad '3'	!	!	!	!	!
8A\L	.	8aa\L	8aa\L	0r	.	0r	.	.	.
8AA/J	.	8a/J	8a/J	.	.	.	.	.	.
4r	.	8r	8r	.	.	.	.	.	.
.	.	8cc#\	8aa\	.	.	.	.	.	.
2r	.	8b\L	8gg#X\L	.	.	.	.	.	.
!	!	!	!LO:TUP:a:problem=klamra łukowa	!	!	!	!	!	!
.	.	24cc#\L	24aa\L	.	.	.	.	.	.
.	.	24b\	24gg#\	.	.	.	.	.	.
.	.	24cc#\JJ	24aa\JJ	.	.	.	.	.	.
.	.	8dd\L	8bb\L	.	.	.	.	.	.
.	.	8cc#\J	8aa\J	.	.	.	.	.	.
*	*	*tuplet	*	*	*	*	*	*	*
=7	=7	=7	=7	=7	=7	=7	=7	=7	=7
8r	.	8cc#\L	8aa\L	.	.	.	.	.	.
16E\LL	.	8b\J	8gg\J	.	.	.	.	.	.
16D\JJ	.	.	.	.	.	.	.	.	.
8C#/L	.	8r	8r	.	.	.	.	.	.
!	!	!LO:TX:b:Bi:t=Cito	!	!	!	!	!	!	!
8AA/J	.	8ee\	8ee\	.	.	.	.	.	.
!	!	!LO:PB:g=original	!	!	!	!	!	!	!
8D\L	3	16ff#\LL	16ff#\LL	.	.	.	.	.	.
.	.	16dd\	(>16dd\	.	.	.	.	.	.
8D\	.	16cc#\	16cc#\	.	.	.	.	.	.
.	.	16dd\JJ	16dd\JJ)	.	.	.	.	.	.
8D\	6	16ff#\LL	16ff#\LL	.	.	.	.	.	.
.	.	16bb\	16bb\	.	.	.	.	.	.
!	!	!	!LO:SIC:s=16aa#:v	!	!	!	!	!	!
8D\J	.	16aa#X\	16aa\	.	.	.	.	.	.
.	.	16bb\JJ	16bb\JJ	.	.	.	.	.	.
=8	=8	=8	=8	=8	=8	=8	=8	=8	=8
8E\L	.	16gg#X\LL	16gg#X\LL	1r	.	1r	.	00r	00r
.	.	16ee\	16ee\	.	.	.	.	.	.
8D\	.	16ff#\	16ff#\	.	.	.	.	.	.
.	.	16gg#\JJ	16gg#\JJ	.	.	.	.	.	.
8C#\	.	8aan\L	8aa\L	.	.	.	.	.	.
8D\J	.	8dd\J	8dd\J	.	.	.	.	.	.
!	!	!	!LO:TX:a:t=P:problem=w źródle skreślona kreska taktowa; poprawki skryptora	!	!	!	!	!	!
4E\	.	8cc#\L	8cc#\L	.	.	.	.	.	.
.	.	16b\L	16b\L	.	.	.	.	.	.
.	.	16a\JJ	16a\JJ	.	.	.	.	.	.
!	!	!LO:TX:a:t=P:problem=mixed beam	!LO:TX:a:t=P:problem=mixed beam	!	!	!	!	!	!
4EE/	.	8ee\L	8ee\L	.	.	.	.	.	.
.	.	8e/J	8e/J	.	.	.	.	.	.
=9	=9	=9	=9	=9	=9	=9	=9	=9	=9
8A`>\L	.	8aa\L	8aa\L	8A\	Do-	8aa\	Do-	.	.
16G#X`>\L	.	16gg#X\L	16gg#X\L	(>16G#X\LL	-na	16gg#X\LL	-na	.	.
16F#`>\JJ	.	16ff#\JJ	16ff#\JJ	16F#\JJ)	.	16ff#\JJ	.	.	.
8E`>\L	.	8ee\L	8ee\L	8E\	no-	8ee\	no-	.	.
8D`>\J	.	8dd\J	8dd\J	8D\	-bis	8dd\	-bis	.	.
!	!	!	!LO:TX:a:t=P:problem=w źródle dodatkowa kreska taktowa	!	!	!	!	!	!
!	!	!	!LO:LB:g=original	!	!	!	!	!	!
8C#`>/L	.	8cc#\L	8cc#\L	8C#/	pa-	8cc#\	pa-	.	.
16AA/L	.	8a\J	8a\J	8AA/	-cem	8a\	-cem	.	.
16BB/JJ	.	.	.	.	.	.	.	.	.
8C#/L	.	8r	8r	8r	.	8r	.	.	.
8AA/J	.	8a/	8cc#\	8A\	do-	8cc#\	da	.	.
=10	=10	=10	=10	=10	=10	=10	=10	=10	=10
!	!	!	!	!LO:SIC:s=4G#:v	!	!	!	!	!
8E\L	7	4g#X/	4b\	4G\	-na	4b\	pa-	.	.
8E\	.	.	.	.	.	.	.	.	.
!	!	!	!	!LO:TX:a:t=P:problem=nuty 8A i 8B nie powinny mieć belki	!	!	!	!	!
8E\	.	8a/L	8cc#\L	8A\L	no-	8cc#\	-cem	.	.
8E\J	.	8b/J	8dd\J	8B\J	-bis	8dd\	da	.	.
!	!	!	!	!LO:LB:g=original	!	!	!	!	!
!LO:TX:a:t=P:problem=mixed beam	!	!	!	!	!	!	!	!	!
8A\L	.	8a/L	16cc#\LL	8A\	pa-	8cc#\	pa-	.	.
.	.	.	16a\	.	.	.	.	.	.
8AA/	.	8cc#/J	16cc#\	8c#\	-cem	8ee\	-cem	.	.
.	.	.	16ee\JJ	.	.	.	.	.	.
8C#/	.	8cc#/L	8aa\L	8r	.	8r	.	.	.
8AA/J	.	8a/J	8cc#\J	8A\	do-	8cc#\	da	.	.
=11	=11	=11	=11	=11	=11	=11	=11	=11	=11
!	!	!LO:SIC:s=4g#:v	!	!LO:SIC:s=4G#:v	!	!	!	!	!
8E\L	7	4g/	4b\	8G\	-na	8b\	pa-	.	.
!	!	!	!	!LO:SIC:s=4G#:v	!	!	!	!	!
8E\	.	.	.	8G\	no-	8b\	-cem	.	.
!	!	!	!	!LO:TX:a:t=P:problem=nuty 8A i 8B nie powinny mieć belki	!	!	!	!	!
8E\	.	8a/L	8cc#\L	(>8A\L	-bis	8cc#\L	pa-	.	.
8E\J	.	8b/J	8dd\J	8B\J)	pa-	8dd\J	.	.	.
!LO:TX:a:t=P:problem=mixed beam	!	!	!	!	!	!	!	!	!
8A\L	.	4a/	16cc#\LL	4A\	-cem	4cc#\	-cem	.	.
.	.	.	16b\J	.	.	.	.	.	.
8AA\	.	.	8a\J	.	.	.	.	.	.
!	!	!	!	!	!	!LO:LB:g=original	!	!	!
8C#/	.	8r	8r	8r	.	8r	.	.	.
8AA/J	.	8a/	8a/	8G\	da	8a\	da	.	.
!	!	!LO:LB:g=original	!	!	!	!	!	!	!
=12	=12	=12	=12	=12	=12	=12	=12	=12	=12
8AA/L	7 x	16ee\LL	16gg\LL	4c#\	pa-	4ee\	pa-	4ee\	4gg\
.	.	16ee\	16gg\	.	.	.	.	.	.
8AA/	.	16cc#\	16ee\	.	.	.	.	.	.
.	.	16cc#\JJ	16ee\JJ	.	.	.	.	.	.
8AA/	.	4a/	16cc#\LL	4c#\	-cem	4ee\	-cem	4a/	4ee\
.	.	.	16cc#\	.	.	.	.	.	.
8AA/J	.	.	16a\	.	.	.	.	.	.
.	.	.	16a\JJ	.	.	.	.	.	.
!LO:LB:g=original	!	!	!	!	!	!	!	!	!
8AA/L	6 4	16ee\LL	16aa\LL	2d\	pa-	2ff#\	pa-	4ff#\	4aa\
.	.	16ee\	16aa\	.	.	.	.	.	.
8AA/	.	16cc#\	16ff#\	.	.	.	.	.	.
.	.	16cc#\JJ	16ff#\JJ	.	.	.	.	.	.
8AA/	.	4a/	16dd\LL	.	.	.	.	4dd\	4ff#\
.	.	.	16dd\	.	.	.	.	.	.
8AA/J	.	.	16a\	.	.	.	.	.	.
.	.	.	16a\JJ	.	.	.	.	.	.
=13	=13	=13	=13	=13	=13	=13	=13	=13	=13
8AA/L	7	16ee\LL	16gg\LL	4e\	-cem	4gg\	-cem	4ee\	4gg\
.	.	16ee\	16gg\	.	.	.	.	.	.
8AA/	.	16cc#\	16ee\	.	.	.	.	.	.
.	.	16cc#\JJ	16ee\JJ	.	.	.	.	.	.
8AA/	.	4a/	16cc#\LL	8r	.	8r	.	4a/	4ee\
.	.	.	16cc#\	.	.	.	.	.	.
8AA/J	.	.	16a\	8A\	do-	8ee\	da	.	.
.	.	.	16a\JJ	.	.	.	.	.	.
8D\L	.	4dd\	8ff#\L	8d\	-na	8ff#\	pa-	4dd\	4ff#\
8F#\	.	.	8dd\J	8F#\	no-	8dd\	-cem	.	.
!	!	!	!	!LO:TX:a:t=P:problem=nuty 8A i 8B nie powinny mieć belki	!	!	!	!	!
8G\	.	4cc#\	4ee\	8G\L	-bis	4ee\	pa-	4a/	4ee\
8A\J	.	.	.	8A\J	pa-	.	.	.	.
=14	=14	=14	=14	=14	=14	=14	=14	=14	=14
8d`>\L	.	8dd\L	8dd\L	4D/	-cem	4dd\	-cem	4f#/	4dd\
16c#`>\L	.	16cc#\L	16cc#\L	.	.	.	.	.	.
16B`>\JJ	.	16b\JJ	16b\JJ	.	.	.	.	.	.
!	!	!	!LO:LB:g=original	!	!	!	!	!	!
8A`>\L	.	8a/L	8a/L	4r	.	4r	.	4r	4r
8G`>\J	.	8g/J	8g/J	.	.	.	.	.	.
!	!	!	!	!	!	!	!	!	!LO:LB:g=original
8F#`>\L	.	8f#/L	8f#/L	2r	.	2r	.	4r	4r
8D`>\J	.	8d/J	8d/J	.	.	.	.	.	.
4r	.	8r	8r	.	.	.	.	8r	8r
.	.	8dd\	8ff#\	.	.	.	.	8dd\	8ff#\
!	!	!	!	!	!	!	!	!LO:LB:g=original	!
=15	=15	=15	=15	=15	=15	=15	=15	=15	=15
*	*	*Xtuplet	*	*	*	*	*	*	*
!	!	!	!	!LO:TX:a:Bi:t=3	!	!LO:TX:a:Bi:t=3	!	!	!
!	!	!	!	!LO:TX:a:t=P:problem=w źródle łuk nad '3'	!	!LO:TX:a:t=P:problem=w źródle łuk nad '3'	!	!	!
2r	.	8cc#\	8ee\	0r	.	0r	.	8a/	8ee\
.	.	4cc#\	4ee\	.	.	.	.	4a/	4ee\
!	!	!	!LO:TUP:a	!	!	!	!	!	!
.	.	24dd\LL	24ff#\LL	.	.	.	.	8dd\	8ff#\
.	.	24cc#\	24ee\	.	.	.	.	.	.
.	.	24dd\JJ	24ff#\JJ	.	.	.	.	.	.
4r	.	4ee\	4gg\	.	.	.	.	4ee\	4gg\
8r	.	16r	16r	.	.	.	.	4r	4r
.	.	16ee\LL	16gg\LL	.	.	.	.	.	.
8A\	7	16dd\	16ff#\	.	.	.	.	.	.
.	.	16cc#\JJ	16ee\JJ	.	.	.	.	.	.
*	*	*tuplet	*	*	*	*	*	*	*
=16	=16	=16	=16	=16	=16	=16	=16	=16	=16
4d\	.	4dd\	8ff#\L	.	.	.	.	4dd\	4ff#\
.	.	.	16ee\L	.	.	.	.	.	.
.	.	.	16dd\JJ	.	.	.	.	.	.
4A\	.	4cc#\	4ee\	.	.	.	.	4a/	4ee\
8D\L	.	8dd\L	8dd\L	.	.	.	.	8dd/L	8dd/L
!	!	!	!	!	!	!	!	!LO:SIC:s=16b:v	!LO:SIC:s=16b:v
8B\	.	8b\	8b\	.	.	.	.	16a/L	16a/L
.	.	.	.	.	.	.	.	16a/JJ	16a/JJ
!	!	!	!	!	!	!	!	!LO:SIC:s=8g:v	!LO:SIC:s=8g:v
8G\	.	8g\	8g\	.	.	.	.	8f#/L	8f#/L
8A\J	.	8a\J	8a\J	.	.	.	.	8f#/J	8f#/J
=17	=17	=17	=17	=17	=17	=17	=17	=17	=17
4D\	.	4ff# 4a 4d/	4ff# 4a 4d/	1r	.	1r	.	4d/	4d/
4r	.	4r	4r	.	.	.	.	4r	4r
2r	.	2r	2r	.	.	.	.	2r	2r
!	!	!	!	!LO:TX:a:Bi:t=Laus Deo	!	!LO:TX:b:Bi:t=Laus Deo	!	!	!
!	!	!	!	!	!	!	!	!LO:TX:b:Bi:t=Laus Deo	!LO:TX:a:Bi:t=Laus Deo
!LO:TX:b:Bi:t=Laus Deo	!	!LO:TX:b:Bi:t=Laus Deo	!LO:TX:b:Bi:t=Laus Deo	!	!	!	!	!	!
==	==	==	==	==	==	==	==	==	==
*-	*-	*-	*-	*-	*-	*-	*-	*-	*-
!!!system-decoration: [(s1,s2)][(s3,s4)][(s5,s6)]s7
!!!RDF**kern: > = above
!!!RDF**kern: < = below
!!!EED: Wojciech Jakubiak-Danek
!!!EEV: 2020-12-01
!!!ENC: Berenika Jozajtis
!!!END: 2020-05-27
!!!YEC: Copyright 2022 Narodowy Instytut Fryderyka Chopina (https://polishscores.org)
!!!YEM: License CC-BY-4.0 (https://creativecommons.org/licenses/by/4.0)
